X:1
T:Title
%%score { ( 1 3 ) | ( 2 4 ) }
L:1/8
M:4/4
K:G
V:1 treble nm="Grand Piano"
V:3 treble 
V:2 treble 
V:4 treble 
V:1
 z4 z2[Q:1/4=100] GA | BBBB B2 GG |[M:3/4] [EA][EG] [EG][CE] [B,D]2 |[M:1/4] GA | %4
[M:4/4] BBBB d2 B2 | [DFA]6 [G,DG][DA] | [DB][DB][DB][DB] [DB]2 [DG][DG] | %7
 [EA][EG][EG][CE] [B,D]2 [DG][EA] | BD^CD B2 A2 |[M:3/4] [G,B,DG]6 |[M:1/4] Bc |[M:4/4] d6 z2 | %12
 A6 z2 | c6 z2 | B6 z2 | BBBB B2 GG | [EA][EG][EG][CE] [B,D]2 [DG][EA] | BD^CD B2 A2 | %18
[M:3/4] [B,DG]6 |] %19
V:2
 z4 z2 [G,B,D][G,CD] | [G,DG][G,DG][G,DG][G,DG] [G,DG]2[K:bass] [G,B,D][G,B,D] | %2
[M:3/4] [C,C][C,C] [C,C][C,G,] [G,,G,]2 |[M:1/4][K:treble] [G,B,D][G,CD] | %4
[M:4/4] [G,DG][G,DG][G,DG][G,DG] [G,B,G]2 [G,DG]2 | D,4- D,C,B,,[A,,F,] | %6
 [G,,G,][G,,G,][G,,G,][G,,G,] [G,,G,]2 [G,,G,][B,,G,] | %7
 [C,C][C,C][C,C][C,G,] [G,,G,]2 [B,,G,][C,G,] | [D,G,D][D,G,B,][D,G,_B,][D,G,=B,] [D,D]2 [D,CD]2 | %9
[M:3/4] G,,6 |[M:1/4][K:treble] GA |[M:4/4] B6 z2 | F6[K:bass][K:treble] z2 | %13
 A6[K:bass][K:treble] z2 | G6[K:bass] z2 | %15
 [G,DG][G,DG][G,DG][G,DG] [G,DG]2[K:bass] [G,B,D][G,B,D] | %16
 [C,C][C,C][C,C][C,G,] [G,,G,]2 [B,,G,][C,G,] | [D,G,D][D,G,B,][D,G,_B,][D,G,=B,] [D,D]2 [D,CD]2 | %18
[M:3/4] [G,,G,]6 |] %19
V:3
 x8 | x8 |[M:3/4] x6 |[M:1/4] x2 |[M:4/4] x8 | x8 | x8 | x8 | x8 |[M:3/4] x6 |[M:1/4] x2 | %11
[M:4/4] z2 DD DBcB | z2 DD D2 AB | z2 DD Dedc | z DDD D2 GA | x8 | x8 | x8 |[M:3/4] x6 |] %19
V:4
 x8 | x6[K:bass] x2 |[M:3/4] x6 |[M:1/4][K:treble] x2 |[M:4/4] x8 | x8 | x8 | x8 | x8 |[M:3/4] x6 | %10
[M:1/4][K:treble] x2 |[M:4/4] z2 G,G, G,[G,DG]AG | z2[K:bass] D,D, D,2[K:treble] FG | %13
 z2[K:bass] D,D, D,[K:treble]cBA | z G,[K:bass]G,G, G,2 [G,B,D][G,CD] | x6[K:bass] x2 | x8 | x8 | %18
[M:3/4] x6 |] %19

